<?xml version="1.0" encoding="UTF-8"?>
<map version="1.10" tiledversion="1.11.2" orientation="orthogonal" renderorder="right-down" width="20" height="20" tilewidth="16" tileheight="16" infinite="0" nextlayerid="8" nextobjectid="1">
 <properties>
  <property name="AmbientLight" value="0"/>
  <property name="Music" value="woodsTheme"/>
  <property name="Season_Override" value="Spring"/>
 </properties>
 <tileset firstgid="1" name="spring_outdoors" tilewidth="16" tileheight="16" tilecount="1975" columns="25">
  <image source="../../../../../../../../../转移/猫咪mod/图片素材/spring_outdoorsTileSheet-change.png" width="400" height="1264"/>
 </tileset>
 <layer id="1" name="Back" width="20" height="20">
  <data encoding="csv">
276,276,276,276,276,276,276,276,276,276,276,276,276,276,276,276,276,276,276,276,
276,276,276,276,276,276,276,276,276,276,276,276,276,276,276,276,276,276,276,276,
276,276,276,276,276,276,276,276,276,276,276,276,276,276,276,276,276,276,276,276,
276,276,276,276,276,276,276,276,276,276,276,276,276,276,276,276,276,276,276,276,
276,276,276,276,276,276,276,276,276,276,276,276,276,276,276,276,276,276,276,276,
276,276,276,276,276,276,276,276,276,276,276,276,276,276,276,276,276,276,276,276,
276,276,276,276,276,276,276,276,276,276,276,276,276,276,276,276,276,276,276,276,
276,276,276,276,276,276,276,276,276,276,276,276,276,276,276,276,276,276,276,276,
276,276,276,276,276,276,276,276,276,276,276,276,276,276,276,276,276,276,276,276,
276,276,276,276,276,276,276,276,276,276,276,276,276,276,276,276,276,276,276,276,
276,276,276,276,276,276,276,276,276,276,276,276,276,276,276,276,276,276,276,276,
276,276,276,276,276,276,276,276,276,276,276,276,276,276,276,276,276,276,276,276,
276,276,276,276,276,276,276,276,276,276,276,276,276,276,276,276,276,276,276,276,
276,276,276,276,276,276,276,276,276,276,276,276,276,276,276,276,276,276,276,276,
276,276,276,276,276,276,276,276,276,276,276,276,276,276,276,276,276,276,276,276,
276,276,276,276,276,276,276,276,276,276,276,276,276,276,276,276,276,276,276,276,
276,276,276,276,276,276,276,276,276,276,276,276,276,276,276,276,276,276,276,276,
276,276,276,276,276,276,276,276,276,276,276,276,276,276,276,276,276,276,276,276,
276,276,276,276,276,276,276,276,276,276,276,276,276,276,276,276,276,276,276,276,
276,276,276,276,276,276,276,276,276,276,276,276,276,276,276,276,276,276,276,276
</data>
 </layer>
 <layer id="5" name="tree" width="20" height="20">
  <data encoding="csv">
108,109,133,134,108,109,0,133,134,158,159,133,134,108,109,158,159,160,158,159,
133,134,158,159,133,134,0,158,159,160,0,158,159,133,134,0,0,0,0,0,
158,159,160,0,158,159,160,0,0,0,0,0,0,158,159,160,0,0,0,0,
0,0,0,0,0,0,0,0,0,0,0,0,0,0,0,0,0,0,0,0,
0,0,0,0,0,0,0,0,0,0,0,0,0,0,0,0,0,0,0,0,
0,0,0,0,0,0,0,0,0,0,0,0,0,0,0,0,0,0,0,0,
0,0,0,0,0,0,0,0,0,0,0,0,0,0,0,0,0,0,0,0,
0,0,0,0,0,0,0,0,0,0,0,0,0,0,0,0,0,0,0,0,
0,0,0,0,0,0,0,0,0,0,0,0,0,0,0,0,0,0,0,0,
0,0,0,0,0,0,0,0,0,0,0,0,0,0,0,0,0,0,0,0,
0,0,0,0,0,0,0,0,0,0,0,0,0,0,0,0,0,0,0,0,
0,0,0,0,0,0,0,0,0,0,0,0,0,0,0,0,0,0,0,0,
0,0,0,0,0,0,0,0,0,0,0,0,0,0,0,0,0,0,0,0,
0,0,0,0,0,0,0,0,0,0,0,0,0,0,0,0,0,0,0,0,
0,0,0,0,0,0,0,0,0,0,0,0,0,0,0,0,0,0,0,0,
0,0,0,0,0,0,0,0,0,0,0,0,0,0,0,0,0,0,0,0,
0,0,0,0,0,0,0,0,0,0,0,0,0,0,0,0,0,0,0,0,
0,0,0,0,0,0,0,0,0,0,0,0,0,0,0,0,0,0,0,0,
0,0,0,0,0,0,0,0,0,0,0,0,0,0,0,0,0,0,0,0,
0,0,0,0,0,0,0,0,0,0,0,0,0,0,0,0,0,0,0,0
</data>
 </layer>
 <layer id="7" name="暗影" width="20" height="20">
  <data encoding="csv">
941,0,0,0,0,0,0,0,0,0,0,0,0,0,0,0,0,0,0,946,
966,0,0,0,0,0,0,0,0,0,0,0,0,0,0,0,0,0,0,971,
991,0,0,0,0,0,0,0,0,0,0,0,0,0,0,0,0,0,0,996,
1016,0,0,0,0,0,0,0,0,0,0,0,0,0,0,0,0,0,0,1021,
1041,0,0,0,0,0,0,0,0,0,0,0,0,0,0,0,0,0,0,946,
941,0,0,0,0,0,0,0,0,0,0,0,0,0,0,0,0,0,0,971,
966,0,0,0,0,0,0,0,0,0,0,0,0,0,0,0,0,0,0,946,
991,0,0,0,0,0,0,0,0,0,0,0,0,0,0,0,0,0,0,971,
941,0,0,0,0,0,0,0,0,0,0,0,0,0,0,0,0,0,0,996,
941,0,0,0,0,0,0,0,0,0,0,0,0,0,0,0,0,0,0,946,
966,0,0,0,0,0,0,0,0,0,0,0,0,0,0,0,0,0,0,946,
941,0,0,0,0,0,0,0,0,0,0,0,0,0,0,0,0,0,0,971,
966,0,0,0,0,0,0,0,0,0,0,0,0,0,0,0,0,0,0,996,
991,0,0,0,0,0,0,0,0,0,0,0,0,0,0,0,0,0,0,946,
1016,0,0,0,0,0,0,0,0,0,0,0,0,0,0,0,0,0,0,971,
941,0,0,0,0,0,0,0,0,0,0,0,0,0,0,0,0,0,0,946,
966,0,0,0,0,0,0,0,0,0,0,0,0,0,0,0,0,0,0,971,
991,0,0,0,0,0,0,0,0,0,0,0,0,0,0,0,0,0,0,946,
1016,1042,1043,1042,1043,1044,1045,1042,1043,1044,1045,1042,1043,1044,1045,1042,1043,1044,1045,971,
1066,1068,1069,1070,1068,1069,1070,1068,1069,1070,1068,1069,1070,1068,1069,1070,1068,1069,1070,1071
</data>
 </layer>
 <layer id="6" name="tree2" width="20" height="20">
  <data encoding="csv">
57,58,59,57,58,59,32,33,57,58,59,32,33,34,35,32,33,34,57,58,
82,83,84,82,83,84,57,58,82,83,84,57,58,59,60,57,58,59,82,83,
0,108,109,0,108,109,82,83,84,108,109,82,83,84,85,82,83,84,85,108,
9,10,134,0,133,134,0,108,109,133,134,0,108,109,0,0,108,109,7,8,
34,35,159,160,158,159,160,133,134,158,159,160,133,134,0,0,133,134,32,33,
59,60,0,0,0,0,0,158,159,160,0,0,158,159,160,0,158,159,57,58,
84,85,0,0,0,0,0,0,0,0,0,0,0,0,0,0,0,0,82,83,
109,0,0,0,0,0,0,0,0,0,0,0,0,0,0,0,0,0,0,108,
9,10,0,0,0,0,0,0,0,0,0,0,0,0,0,0,0,0,0,133,
34,35,0,0,0,0,0,0,0,0,0,0,0,0,0,0,0,0,7,8,
59,60,0,0,0,0,0,0,0,0,0,0,0,0,0,0,0,0,32,33,
84,85,0,0,0,0,0,0,0,0,0,0,0,0,0,0,0,0,57,58,
109,0,0,0,0,0,0,0,0,0,0,0,0,0,0,0,0,0,82,83,
9,10,0,0,0,0,0,0,0,0,0,0,0,0,0,0,0,0,7,8,
34,35,0,0,0,0,0,0,0,0,0,0,0,0,0,0,0,0,32,33,
59,60,0,0,0,0,0,0,0,0,0,0,0,0,0,0,0,0,57,58,
84,85,0,0,0,0,0,0,0,0,0,0,0,0,0,0,0,0,82,83,
109,0,0,0,0,0,0,0,0,0,0,0,0,0,0,0,0,0,0,108,
134,0,0,0,0,0,0,0,0,0,0,0,0,0,0,0,0,0,0,133,
159,160,0,0,0,0,0,0,0,0,0,0,0,0,0,0,0,0,0,158
</data>
 </layer>
 <layer id="2" name="Buildings" width="20" height="20">
  <data encoding="csv">
0,0,0,0,0,0,0,0,0,0,0,0,0,0,0,0,0,0,0,0,
0,0,0,0,0,0,0,0,0,0,0,0,0,0,0,0,0,0,0,0,
0,0,0,0,0,0,0,0,0,0,0,0,0,0,0,0,0,0,0,0,
0,0,0,0,0,0,0,0,0,0,0,0,0,0,0,0,0,0,0,0,
0,0,0,0,0,0,0,0,0,0,0,0,0,0,0,0,0,0,0,0,
0,0,0,0,0,0,0,0,0,0,0,0,0,0,0,0,0,0,0,0,
0,0,0,0,0,0,0,0,0,0,0,0,0,0,0,0,0,0,0,0,
0,0,0,0,0,0,0,0,0,0,0,0,0,0,0,0,0,0,0,0,
0,0,0,0,0,0,0,0,0,0,0,0,0,0,0,0,0,0,0,0,
0,0,0,0,0,0,0,0,0,0,0,0,0,0,0,0,0,0,0,0,
0,0,0,0,0,0,0,0,0,0,0,0,0,0,0,0,0,0,0,0,
0,0,0,0,0,0,0,0,0,0,0,0,0,0,0,0,0,0,0,0,
0,0,0,0,0,0,0,0,0,0,0,0,0,0,0,0,0,0,0,0,
0,0,0,0,0,0,0,0,0,0,0,0,0,0,0,0,0,0,0,0,
0,0,0,0,0,0,0,0,0,0,0,0,0,0,0,0,0,0,0,0,
0,0,0,0,0,0,0,0,0,0,0,0,0,0,0,0,0,0,0,0,
0,0,0,0,0,0,0,0,0,0,0,0,0,0,0,0,0,0,0,0,
0,0,0,0,0,0,0,0,0,0,0,0,0,0,0,0,0,0,0,0,
0,0,0,0,0,0,0,0,0,0,0,0,0,0,0,0,0,0,0,0,
0,0,0,0,0,0,0,0,0,0,0,0,0,0,0,0,0,0,0,0
</data>
 </layer>
 <layer id="3" name="Front" width="20" height="20">
  <data encoding="csv">
0,0,0,0,0,0,0,0,0,0,0,0,0,0,0,0,0,0,0,0,
0,0,0,0,0,0,0,0,0,0,0,0,0,0,0,0,0,0,0,0,
0,0,0,0,0,0,0,0,0,0,0,0,0,0,0,0,0,0,0,0,
0,0,0,0,0,0,0,0,0,0,0,0,0,0,0,0,0,0,0,0,
0,0,0,0,0,0,0,0,0,0,0,0,0,0,0,0,0,0,0,0,
0,0,0,0,0,0,0,0,0,0,0,0,0,0,0,0,0,0,0,0,
0,0,0,0,0,0,0,0,0,0,0,0,0,0,0,0,0,0,0,0,
0,0,0,0,0,0,0,0,0,0,0,0,0,0,0,0,0,0,0,0,
0,0,0,0,0,0,0,0,0,0,0,0,0,0,0,0,0,0,0,0,
0,0,0,0,0,0,0,0,0,0,0,0,0,0,0,0,0,0,0,0,
0,0,0,0,0,0,0,0,0,0,0,0,0,0,0,0,0,0,0,0,
0,0,0,0,0,0,0,0,0,0,0,0,0,0,0,0,0,0,0,0,
0,0,0,0,0,0,0,0,0,0,0,0,0,0,0,0,0,0,0,0,
0,0,0,0,0,0,0,0,0,0,0,0,0,0,0,0,0,0,0,0,
0,0,0,0,0,0,0,0,0,0,0,0,0,0,0,0,0,0,0,0,
0,0,0,0,0,0,0,0,0,0,0,0,0,0,0,0,0,0,0,0,
0,0,0,0,0,0,0,0,0,0,0,0,0,0,0,0,0,0,0,0,
0,0,0,0,0,0,0,0,0,0,0,0,0,0,0,0,0,0,0,0,
0,0,0,0,0,0,0,0,0,0,0,0,0,0,0,0,0,0,0,0,
0,0,0,0,0,0,0,0,0,0,0,0,0,0,0,0,0,0,0,0
</data>
 </layer>
 <layer id="4" name="AlwaysFront" width="20" height="20">
  <data encoding="csv">
0,0,0,0,0,0,0,0,0,0,0,0,0,0,0,0,0,0,0,0,
0,0,0,0,0,0,0,0,0,0,0,0,0,0,0,0,0,0,0,0,
0,0,0,0,0,0,0,0,0,0,0,0,0,0,0,0,0,0,0,0,
0,0,0,0,0,0,0,0,0,0,0,0,0,0,0,0,0,0,0,0,
0,0,0,0,0,0,0,0,0,0,0,0,0,0,0,0,0,0,0,0,
0,0,0,0,0,0,0,0,0,0,0,0,0,0,0,0,0,0,0,0,
0,0,0,0,0,0,0,0,0,0,0,0,0,0,0,0,0,0,0,0,
0,0,0,0,0,0,0,0,0,0,0,0,0,0,0,0,0,0,0,0,
0,0,0,0,0,0,0,0,0,0,0,0,0,0,0,0,0,0,0,0,
0,0,0,0,0,0,0,0,0,0,0,0,0,0,0,0,0,0,0,0,
0,0,0,0,0,0,0,0,0,0,0,0,0,0,0,0,0,0,0,0,
0,0,0,0,0,0,0,0,0,0,0,0,0,0,0,0,0,0,0,0,
0,0,0,0,0,0,0,0,0,0,0,0,0,0,0,0,0,0,0,0,
0,0,0,0,0,0,0,0,0,0,0,0,0,0,0,0,0,0,0,0,
0,0,0,0,0,0,0,0,0,0,0,0,0,0,0,0,0,0,0,0,
0,0,0,0,0,0,0,0,0,0,0,0,0,0,0,0,0,0,0,0,
0,0,0,0,0,0,0,0,0,0,0,0,0,0,0,0,0,0,0,0,
0,0,0,0,0,0,0,0,0,0,0,0,0,0,0,0,0,0,0,0,
0,0,0,0,0,0,0,0,0,0,0,0,0,0,0,0,0,0,0,0,
0,0,0,0,0,0,0,0,0,0,0,0,0,0,0,0,0,0,0,0
</data>
 </layer>
</map>
